X:1
T:Där borta
T:Wilhelm Stenhammar (1871-1927)
T:Text: J P Jacobsen
T:Havde jeg, o havde jeg en Dattersøn, o ja!
T:©PA Aglert Edition may be freely distributed, duplicated, performed and recorded
T:©PA Aglert Edition may be freely distributed, duplicated, performed and recorded
T:©PA Aglert Edition may be freely distributed, duplicated, performed and recorded
T:©PA Aglert Edition may be freely distributed, duplicated, performed and recorded
T:©PA Aglert Edition may be freely distributed, duplicated, performed and recorded
T:©PA Aglert Edition may be freely distributed, duplicated, performed and recorded
C:Ludvig Norman (1831-1885)
Z:©PA Aglert
Z:Edition may be freely distributed, duplicated, performed and recorded
%%score [ 1 ( 2 3 ) 4 5 ]
L:1/8
Q:1/4=105
M:2/4
K:D
V:1 treble nm="S"
V:2 treble nm="A"
V:3 treble 
V:4 treble-8 nm="T"
V:5 bass nm="B"
V:1
"^Allegretto vivace"!p! F>G AG | F>G AG |!<(! FA c!<)!e | d2 cB | A2!<(! c!<)!d | !>!e>!>(!d cB | %6
w: Hav- de jeg, o|hav- de jeg en|Dat- ter- søn, o|ja! og en|Kis- te med|man- ge, man- ge|
 B2!>)! A2 | z2 z!f! d | d>e fe | d>e fe |!<(! (de) f!<)!g |!>(! B3!>)!!mf! d | !>!f>e dc | %13
w: Pen- ge,|saa|hav- de jeg vel|og- saa havt en|Dat- * ter, o|ja, og|Hus og Hjem og|
!<(! A2 d!<)!f | !>!e2 d2 | z2 z!f! A || %16
w: Mar- ker og|En- ge.|Tra|
[M:6/8][Q:1/4=158]"^(Œ.= Œ)"[Q:1/4=158]"^(Œ.= Œ)"[Q:1/4=158]"^(Œ.= Œ)"!<(! B>GB dBd | %17
w: la la la la la la|
 ed!<)!e [Bg]3- | [Bg]2!>(! e!>)! e2!p! f | d2 A A2!f! A |!<(! B>GB dBd | fd!<)!f [Ba]3- | %22
w: la la la la|* la la, tra|la la la, tra|la la la la la la|la la la la|
 [Ba]2 e e2 f | f6- | f2"^dim." d d2 B | B2 A A2 z | %26
w: * la la, tra|la|* la la, tra|la la la,|
!p!"^pochissimo rit.""^pochissimo rit.""^pochissimo rit.""^pochissimo rit." A3 E3 |!p! A3 E3 || %28
w: tra la,|tra la,|
[M:2/4][Q:1/4=105]"^(Œ = Œ.)"!pp!"^a tempo""^a tempo""^a tempo" F>"^a tempo"G AG | F>G AG | %30
w: Hav- de jeg, o|hav- de jeg en|
!<(! FA c!<)!e | d2 z c |!<(! A>B c!<)!d | (!>!e>d)!>(! cB!>)! | B2!>(! A2!>)! | z2 z!f! d | %36
w: Dat- ter- lil, o|ja! og|Hus og Hjem og|Mar- * ker og|En- ge,|saa|
 d>e fe |"^rit.""^rit.""^rit.""^rit." d>e fe"^rit.""^rit.""^rit.""^rit." | %38
w: hav- de jeg vel|og- saa havt en|
"^rit."!<(! de!<)! f/ !fermata!z/!p! g"^sost." |!>(! B3!>)!!mf! d | %40
w: Kær- * rest, o|ja! med|
"^a tempo""^a tempo""^a tempo""^a tempo" (f>e) dc |!<(! A>A d!<)!f |!>(! e2!>)! d2 | z2 z!f! A || %44
w: Kis- * ter med|man- ge, man- ge|Pen- ge.|Tra|
[M:6/8][Q:1/4=158]"^(Œ.= Œ)"!<(! B>GB dBd | ed!<)!e [Bg]3- | [Bg]2!>(! e e2!>)!!p! f | %47
w: la la la la la la|la la la la|* la la, tra|
 d2 A A2!f! A |!<(! B>GB dBd | fd!<)!f [Ba]3- | [Ba]2 e e2 f | f6- |"^dim." f2 d d2 B | B2 A A2 z | %54
w: la la la, tra|la la la la la la|la la la la|* la la, tra|la|* la la, tra|la la la,|
"^dim." !>!A3"^rit.""^rit.""^rit.""^rit." E3 | !>!A3 E2!f! A |"^sost." [Aa]3- [Aa]2 [Af] | %57
w: tra la,|tra la, o|hav- * de|
!>(! d3-!>)! d !fermata!z!pp! B"^a tempo" |"^a tempo""^a tempo""^a tempo" A>FF z2 !fermata!z |] %59
w: jeg * en|Dat- ter- søn|
V:2
!p! D>D CC | D>D CC |!<(! DF F!<)!F | F2 ED | (C!<(!E) A!<)!A | !>!^G>!>(!G GG | E>F D!>)!E | %7
w: Hav- de jeg, o|hav- de jeg en|Dat- ter- søn, o|ja! og en|Kis- * te med|man- ge, man- ge,|man- ge, man- ge|
!<(! (C!<)!!>(!B,)!>)! A,!f!F | G>G FF | G>G FF |!<(! G2 G!<)!G |!>(! G3!>)!!mf! G | !>!G>G F^E | %13
w: Pen- * ge, saa|hav- de jeg vel|og- saa havt en|Dat- ter, o|ja, og|Hus og Hjem og|
!<(! F2 AG!<)! | !>!G2 GA |!<(! (F!<)!!>(!E)!>)! D!f![DF] ||[M:6/8]!<(! G>EG BGB | dB!<)!d e3- | %18
w: Mar- ker og|Mar- ker og|En- * ge. Tra|la la la la la la|la la la la|
 e2!>(! d d2!>)!!p! c | d2 A A2!f! F |!<(! G>EG BGB | dB!<)!d f3- | f2 d d2 c | c6- | %24
w: * la la, tra|la la la, tra|la la la la la la|la la la la|* la la, tra|la|
 c2"^dim." A A2 G | G2 F F2 F |!pp! F2 G A3 | F2 G A3 ||[M:2/4]!pp! D>D CC | D>D CC | %30
w: * la la, tra|la la la, og|hav- de jeg,|hav- de jeg,|Hav- de jeg, o|hav- de jeg en|
!<(! DF F!<)!F | F2 z E |!<(! C>E A!<)!A | !>!^G2!>(! GG!>)! | (E>!>(!F) D!>)!E | %35
w: Dat- ter- lil, o|ja! og|Hus og Hjem og|Mar- ker og|Mar- * ker og|
!<(! (C!<)!B,)!>)!!>(! A,!f!F | G>G FF | G>G FF |!<(! G2!<)! F/ !fermata!z/!p! B"^sost." | %39
w: En- * ge, saa|hav- de jeg vel|og- saa havt en|Kær- rest, o|
!>(! [EG]3!>)!!mf! G | G2 F^E |!<(! F>F A!<)!G |!>(! F2!>)! (FG) |!<(! (E!<)!D)!>(! C!>)!!f![DF] || %44
w: ja! med|Kis- ter med|man- ge, man- ge|man- ge *|Pen- * ge. Tra|
[M:6/8]!<(! G>EG BGB | dB!<)!d e3- | e2!>(! d d2!>)!!p! c | d2 A A2!f! F |!<(! G>EG BGB | %49
w: la la la la la la|la la la la|* la la, tra|la la la, tra|la la la la la la|
 dB!<)!d f3- | f2 d d2 c | c6- |"^dim." c2 A A2 G | G2 F F2 F |"^dim." F2 G A3 | F2 G A2!f! A | %56
w: la la la la|* la la, tra|la|* la la, tra|la la la, og|hav- de jeg,|hav- de jeg, o|
"^sost." F3- F2 A |!>(! G3-!>)! G !fermata!z!pp! D | D>DD z2 !fermata!z |] %59
w: hav- * de|jeg * en|Dat- ter- søn|
V:3
 x4 | x4 | x4 | x4 | x4 | x4 | x4 | x4 | x4 | x4 | x4 | x4 | x4 | x4 | x4 | x4 ||[M:6/8] D>DE GEG | %17
 BGB d3- | d2 B B2 A | A2 F F2 D | D>DE GEG | BGB d3- | d2 B B2 A | A6- | A2 A A2 G | x6 | x6 | %27
 x6 ||[M:2/4] x4 | x4 | x4 | x4 | x4 | x4 | x4 | x4 | x4 | x4 | x4 | x4 | x4 | x4 | x4 | x4 || %44
[M:6/8] D>DE GEG | BGB d3- | d2 B B2 A | A2 F F2 D | D>DE GEG | BGB d3- | d2 B B2 A | A6- | %52
 A2 A A2 G | x6 | x6 | x6 | x6 | x6 | x6 |] %59
V:4
!p! A>A EE | A>A EE |!<(! AA A!<)!A | A2 ^GG | A2!<(! A!<)!B | !>!c>!>(!B ed | d2 (F!>)!^G) | %7
w: Hav- de jeg, o|hav- de jeg en|Dat- ter- søn, o|ja! og en|Kis- te med|man- ge, man- ge,|man- ge *|
!<(! A2!<)!!>)!!>(! A!f!A | d>B AA | d>B AA |!<(! d2 d!<)!d |!<(! (d2!<)!!>(! c)!>)!!mf!B | %12
w: Pen- ge, saa|hav- de jeg vel|og- saa havt en|Dat- ter, o|ja, * og|
 !>!c>c dB |!<(! (ce) d!<)!d | (!>!c>d) Bc |!<(! d2!<)!!>)!!>(! d!f!=c ||[M:6/8]!<(! B>Bd ede | %17
w: Hus og Hjem og|Mar- * ker og|Mar- * ker og|En- ge. Tra|la la la la la la|
 ge!<)!g [eg]3- | [eg]2!>(! g!>)! g2!p! g | f2 d d2!f! =c |!<(! B>Bd ede | ge!<)!g [eg]3- | %22
w: la la la la|* la la, tra|la la la, tra|la la la la la la|la la la la|
 [eg]2 g g2 [Ag] | [Ag]6- | [Ag]2"^dim." [Af] [Af]2 [ce] | [ce]2 d d2 A |!pp! A2 B c3 | A2 B c3 || %28
w: * la la, tra|la|* la la, tra|la la la, og|hav- de jeg,|hav- de jeg,|
[M:2/4]!pp! A>A EE | A>A EE |!<(! AA AA!<)! | A2 z ^G |!<(! A>A A!<)!B | (!>!c>!>(!B) ed!>)! | %34
w: Hav- de jeg, o|hav- de jeg en|Dat- ter- lil, o|ja! og|Hus og Hjem og|Mar- * ker og|
 d2!>(! F!>)!^G |!<(! A2!<)!!>(! A!>)!!f!A | d>B AA | d>B AA | %38
w: Mar- ker og|En- ge, saa|hav- de jeg vel|og- saa havt en|
!<(! d2!<)! d/ !fermata!z/!p! d"^sost." |!>(! (d2 c)!>)!!mf!B | c2 dB |!<(! c>e d!<)!d | c>d Bc | %43
w: Kær- rest, o|ja! * med|Kis- ter med|man- ge, man- ge|man- ge, man- ge|
!<(! d2!<)!!>(! d!>)!!f!=c ||[M:6/8]!<(! B>Bd ede | ge!<)!g [eg]3- | [eg]2!>(! g!>)! g2!p! g | %47
w: Pen- ge. Tra|la la la la la la|la la la la|* la la, tra|
 f2 d d2!f! =c |!<(! B>Bd ede | ge!<)!g [eg]3- | [eg]2 g g2 [Ag] | [Ag]6- | %52
w: la la la, tra|la la la la la la|la la la la|* la la, tra|la|
"^dim." [Ag]2 [Af] [Af]2 [ce] | [ce]2 d d2 A |"^dim." A2 B c3 | A2 B c2!f! A |"^sost." [Ad]6 | %57
w: * la la, tra|la la la, og|hav- de jeg,|hav- de jeg, tra|la|
!>(! [Bd]3-!>)! [Bd] !fermata!z!pp! G | F>AA z2 !fermata!z |] %59
w: la, * en|Dat- ter- søn|
V:5
!p! D,>D, A,,A,, | D,>D, A,,A,, |!<(! D,D, C,C,!<)! | B,,2 E,E, | (A,!<(!^G,) =G,!<)!F, | %5
w: Hav- de jeg, o|hav- de jeg en|Dat- ter- søn, o|ja! og en|Kis- * te med|
 !>!E,>!>(!E, E,E, | [A,,E,]2!>)! [A,,E,]2 |!<(! (A,!<)!!>(!E,) C,!>)!!f!=C, | B,,>G,, D,=C, | %9
w: man- ge, man- ge|Pen- ge,|Pen- * ge, saa|hav- de jeg vel|
 B,,>G,, D,=C, |!<(! B,,2 E,!<)!E, |!>(! A,3!>)!!mf! E, | !>!A,>^A, B,C, |!<(! F,2 B,!<)!E, | %14
w: og- saa havt en|Dat- ter, o|ja, og|Hus og Hjem og|Mar- ker og|
 !>!A,2 D,2 |!<(! (D!<)!!>(!A,)!>)! F,!f!D, ||[M:6/8] G,3 z2 z | z2 z z2!f! A, | A,,3- A,,2!p! A, | %19
w: En- ge.|En- * ge. Tra|la|tra|la, * tra|
 D2 D, D,2!f! D, | G,3 z2 z | z2 z z2!f! A, | A,,3- A,,2 z | z2 z z2!mf! A, | D,6-"^dim." | D,6 | %26
w: la la la, tra|la,|tra|la, *|tra|la||
!pp! D,6 | D,6 ||[M:2/4]!pp! D,>D, A,,A,, | D,>D, A,,A,, |!<(! D,D, C,!<)!C, | B,,2 z E, | %32
w: la|la,|Hav- de jeg, o|hav- de jeg en|Dat- ter- lil, o|ja! og|
!<(! A,>^G, =G,!<)!F, | !>!E,2!>(! E,!>)!E, | [A,,E,]2!>(! [A,,E,]2!>)! | %35
w: Hus og Hjem og|Mar- ker og|En- ge,|
!<(! (A,!<)!!>(!E,) C,!>)!!f!=C, | B,,>G,, D,=C, | B,,>G,, D,=C, | %38
w: En- * ge, saa|hav- de jeg vel|og- saa havt en|
!<(! B,,2!<)! B,/ !fermata!z/!p! E,"^sost." | [A,,E,]3!mf!!>)!!>(! E, | (A,>^A,) B,C, | %41
w: Kær- rest, o|ja! med|Kis- * ter med|
!<(! F,>F, B,!<)!E, | A,2 D,2 |!<(! (D!<)!!>(!A,) F,!>)!!f!D, ||[M:6/8] G,3 z2 z | z2 z z2!f! A, | %46
w: man- ge, man- ge|Pen- ge,|Pen- * ge. Tra|la,|tra|
 A,,3- A,,2!p! A, | D2 D, D,2!f! D, | G,3 z2 z | z2 z z2 A, | A,,3- A,,2 z | z2 z z2 A, | %52
w: la, * tra|la la la, tra|la,|tra|la *|tra|
"^dim." D,6- | D,6 |"^dim." D,6 | D,3- D,2!f! A, |"^sost." D,6 | %57
w: la||la|la, * tra|la|
!>(! D,3-!>)! D, !fermata!z!pp! D, | D,>D,D, z2 !fermata!z |] %59
w: la, * en|Dat- ter- søn|

